packages/web-icons/svgs/paper_bold.svg

<svg viewBox="0 0 18 25" xmlns="http://www.w3.org/2000/svg" class="ridi_icon"><path d="M15.6.1h-13C.7.1.2.7.2 2.5v19.2c0 1.9.6 2.4 2.4 2.4h13c1.9 0 2.4-.6 2.4-2.4V2.5C17.9.7 17.4.1 15.6.1zM9 22.8c-.2 0-.3-.1-.3-.3 0-.2.1-.3.3-.3.2 0 .3.1.3.3 0 .2-.1.3-.3.3zm6.7-2c0 .1-.1.2-.3.2H2.6c-.1 0-.2-.1-.2-.2V3.6c0-.1.1-.2.2-.2h12.9c.1 0 .2.1.2.2v17.2z"/></svg>

<?xml version="1.0" encoding="UTF-8"?>
<svg width="18px" height="25px" viewBox="0 0 18 25" version="1.1" xmlns="http://www.w3.org/2000/svg">
  <!-- Generator: Sketch 41.2 (35397) - http://www.bohemiancoding.com/sketch -->
  <title>paper_bold</title>
  <desc>Created with Sketch.</desc>
  <defs></defs>
  <g id="Page-1" stroke="none" stroke-width="1" fill="none" fill-rule="evenodd">
    <g id="paper_bold" fill="#231F20">
      <g id="Layer_1">
        <path d="M15.6,0.1 L2.6,0.1 C0.7,0.1 0.2,0.7 0.2,2.5 L0.2,21.7 C0.2,23.6 0.8,24.1 2.6,24.1 L15.6,24.1 C17.5,24.1 18,23.5 18,21.7 L18,2.5 C17.9,0.7 17.4,0.1 15.6,0.1 Z M9,22.8 C8.8,22.8 8.7,22.7 8.7,22.5 C8.7,22.3 8.8,22.2 9,22.2 C9.2,22.2 9.3,22.3 9.3,22.5 C9.3,22.7 9.2,22.8 9,22.8 Z M15.7,20.8 C15.7,20.9 15.6,21 15.4,21 L2.6,21 C2.5,21 2.4,20.9 2.4,20.8 L2.4,3.6 C2.4,3.5 2.5,3.4 2.6,3.4 L15.5,3.4 C15.6,3.4 15.7,3.5 15.7,3.6 L15.7,20.8 L15.7,20.8 Z" id="Shape"></path>
      </g>
    </g>
  </g>
</svg>
